packages/sources/assets/src/assets/mnp.svg

<svg width="58" height="40" viewBox="0 0 58 40" fill="none" xmlns="http://www.w3.org/2000/svg">
<rect x="0.5" y="0.5" width="57" height="39" rx="3.5" fill="white" stroke="#F3F3F3"/>
<path fill-rule="evenodd" clip-rule="evenodd" d="M9.38205 14.0022C9.40253 14.0021 9.42497 14.0017 9.44918 14.0013C9.92544 13.9932 11.0894 13.9734 11.5965 15.685C11.9555 16.8966 12.5274 18.8813 13.3121 21.639H13.6317C14.4732 18.7316 15.0513 16.747 15.366 15.685C15.8722 13.9764 17.0925 13.9931 17.6842 14.0012C17.7218 14.0018 17.7569 14.0022 17.7892 14.0022L21.9438 14.0022V26.926H17.7093V19.3098H17.4253L15.0648 26.926H11.8789L9.51842 19.3042H9.23447V26.926H5V14.0022L9.38205 14.0022ZM28.0244 14.0022V21.6241H28.3622L31.2335 15.3567C31.7909 14.1095 32.9788 14.0022 32.9788 14.0022H37.0765V26.926H32.7536V19.3042H32.4158L29.6008 25.5716C29.0434 26.8132 27.7992 26.926 27.7992 26.926H23.7015V14.0022H28.0244ZM47.4252 23.0762C49.5218 23.0762 51.4154 21.8525 52.0184 20.1437H38.781V26.926H42.8918V23.0762H47.4252Z" fill="#40A548"/>
<path d="M47.6235 14.0022H38.5654C38.781 16.8795 41.2588 19.3426 43.8239 19.3426H52.3041C52.7934 16.9513 51.1088 14.0022 47.6235 14.0022Z" fill="#1291D0"/>
</svg>

<svg width="58" height="40" fill="none" xmlns="http://www.w3.org/2000/svg"><rect x=".5" y=".5" width="57" height="39" rx="3.5" fill="#fff" stroke="#F3F3F3"/><path fill-rule="evenodd" clip-rule="evenodd" d="M9.382 14.002h.067c.476-.009 1.64-.029 2.148 1.683.359 1.212.93 3.196 1.715 5.954h.32c.841-2.907 1.42-4.892 1.734-5.954.506-1.709 1.727-1.692 2.318-1.684l.105.001h4.155v12.924h-4.235V19.31h-.284l-2.36 7.616h-3.186l-2.36-7.622h-.285v7.622H5V14.002h4.382Zm18.642 0v7.622h.338l2.872-6.267c.557-1.247 1.745-1.355 1.745-1.355h4.098v12.924h-4.323v-7.622h-.338L29.6 25.572c-.558 1.241-1.802 1.354-1.802 1.354H23.7V14.002h4.323Zm19.401 9.074c2.097 0 3.99-1.224 4.593-2.932H38.781v6.782h4.11v-3.85h4.534Z" fill="#40A548"/><path d="M47.623 14.002h-9.058c.216 2.877 2.694 5.34 5.259 5.34h8.48c.49-2.39-1.195-5.34-4.68-5.34Z" fill="#1291D0"/></svg>
